icon-themes/breeze_svg/cmd/32/unhainframes.svg

<svg viewBox="0 0 32 32" xmlns="http://www.w3.org/2000/svg"><path d="m5 10c-.5540146 0-1 .445985-1 1v10c0 .554015.4459854 1 1 1h9c.554015 0 1-.445985 1-1v-3h-1v3h-9v-10h9v3h1v-3c0-.554015-.445985-1-1-1zm13 0c-.55401 0-1 .44598-1 1v3h1v-3h9v10h-9v-3h-1v3c0 .55402.44599 1 1 1h9c.55402 0 1-.44598 1-1v-10c0-.55402-.44598-1-1-1z" fill="#4d4d4d"/><path d="m12 15v2h8v-2z" fill="#da4453"/></svg>

<svg xmlns="http://www.w3.org/2000/svg" viewBox="0 0 32 32">
 <path 
     style="fill:#4d4d4d" 
     d="M 5 10 C 4.4459854 10 4 10.445985 4 11 L 4 21 C 4 21.554015 4.4459854 22 5 22 L 14 22 C 14.554015 22 15 21.554015 15 21 L 15 18 L 14 18 L 14 21 L 5 21 L 5 11 L 14 11 L 14 14 L 15 14 L 15 11 C 15 10.445985 14.554015 10 14 10 L 5 10 z M 18 10 C 17.44599 10 17 10.44598 17 11 L 17 14 L 18 14 L 18 11 L 27 11 L 27 21 L 18 21 L 18 18 L 17 18 L 17 21 C 17 21.55402 17.44599 22 18 22 L 27 22 C 27.55402 22 28 21.55402 28 21 L 28 11 C 28 10.44598 27.55402 10 27 10 L 18 10 z "
     />
 <path 
     style="fill:#da4453" 
     d="M 12 15 L 12 17 L 20 17 L 20 15 L 12 15 z "
     />
</svg>
